images/phone_40_color.svg

<svg width="40" height="40" viewBox="0 0 40 40" fill="none" xmlns="http://www.w3.org/2000/svg">
<path d="M12.2964 7.03176C10.9497 5.25976 8.34897 5.08326 6.77518 6.65704L5.98672 7.4455C3.465 9.96723 2.20799 13.5948 3.36417 16.9685C5.0336 21.8397 7.81162 26.4151 11.6982 30.3018C15.5849 34.1884 20.1603 36.9664 25.0315 38.6358C28.4052 39.792 32.0328 38.535 34.5545 36.0133L35.343 35.2248C36.9167 33.651 36.7402 31.0503 34.9682 29.7036L29.8036 25.7785C28.3413 24.6671 26.2829 24.8068 24.9842 26.1056L22.7358 28.354C22.0186 29.0711 19.4024 27.6177 16.8924 25.1076C14.3823 22.5976 12.9289 19.9814 13.646 19.2642L15.8944 17.0158C17.1932 15.7171 17.3329 13.6587 16.2215 12.1964L12.2964 7.03176Z" fill="#F3D48F" style="fill:#F3D48F;fill:color(display-p3 0.9527 0.8304 0.5627);fill-opacity:1;"/>
<path fill-rule="evenodd" clip-rule="evenodd" d="M16.2418 16.6199C17.3044 15.3344 17.3593 13.467 16.3321 12.1154L12.455 7.01399C11.1894 5.34883 8.80282 5.11004 7.2351 6.42929C7.42477 11.5901 11.26 15.82 16.2418 16.6199ZM24.6819 26.1597L24.9875 25.8542C26.2703 24.5714 28.3035 24.4334 29.7479 25.5311L34.8493 29.4082C36.2074 30.4403 36.6167 32.2183 36.0057 33.6894C35.6555 33.7239 35.3004 33.7416 34.9411 33.7416C30.111 33.7416 26.0264 30.5494 24.6819 26.1597Z" fill="#F8E3B5" style="fill:#F8E3B5;fill:color(display-p3 0.9730 0.8908 0.7105);fill-opacity:1;"/>
<path fill-rule="evenodd" clip-rule="evenodd" d="M11.5558 7.59461C10.5502 6.2714 8.60813 6.1396 7.43293 7.3148L6.64448 8.10326C4.30976 10.438 3.22983 13.7072 4.24413 16.6669C5.86861 21.407 8.57179 25.8598 12.356 29.644C16.1402 33.4282 20.593 36.1314 25.3331 37.7559C28.2928 38.7702 31.562 37.6902 33.8967 35.3555L34.6852 34.5671C35.8604 33.3919 35.7286 31.4498 34.4054 30.4442L29.2408 26.5191C28.1488 25.6892 26.6117 25.7935 25.6419 26.7633L23.3935 29.0117C22.8804 29.5248 22.179 29.509 21.6963 29.4155C21.1752 29.3146 20.6051 29.071 20.0347 28.7541C18.8824 28.114 17.5329 27.0637 16.2346 25.7654C14.9363 24.4671 13.886 23.1176 13.2458 21.9653C12.929 21.3949 12.6854 20.8248 12.5845 20.3037C12.491 19.821 12.4752 19.1196 12.9883 18.6065L15.2367 16.3581C16.2065 15.3883 16.3108 13.8512 15.4809 12.7592L11.5558 7.59461ZM6.11742 5.99929C8.0898 4.02691 11.3492 4.24812 13.037 6.4689L16.9621 11.6335C18.3549 13.4662 18.1798 16.0459 16.5522 17.6736L14.394 19.8318C14.3962 19.8601 14.4011 19.8988 14.411 19.95C14.4593 20.1995 14.6016 20.5748 14.8721 21.0618C15.4069 22.0244 16.3384 23.2381 17.5501 24.4499C18.7619 25.6616 19.9756 26.5931 20.9382 27.1279C21.4252 27.3984 21.8005 27.5407 22.05 27.589C22.1012 27.5989 22.1399 27.6038 22.1682 27.606L24.3264 25.4478C25.9541 23.8202 28.5338 23.6451 30.3665 25.0379L35.5311 28.963C37.7519 30.6508 37.9731 33.9102 36.0007 35.8826L35.2122 36.671C32.5035 39.3798 28.5176 40.8138 24.73 39.5158C19.7275 37.8014 15.0295 34.9486 11.0405 30.9595C7.05144 26.9705 4.19858 22.2725 2.48421 17.27C1.18616 13.4824 2.62023 9.49648 5.32897 6.78775L6.11742 5.99929ZM22.2312 27.6057C22.2312 27.6057 22.228 27.6067 22.2202 27.6072C22.2271 27.6056 22.2312 27.6057 22.2312 27.6057ZM14.3943 19.7688C14.3943 19.7688 14.3944 19.7729 14.3928 19.7798C14.3933 19.772 14.3943 19.7688 14.3943 19.7688Z" fill="#A48338" style="fill:#A48338;fill:color(display-p3 0.6444 0.5137 0.2203);fill-opacity:1;"/>
<path fill-rule="evenodd" clip-rule="evenodd" d="M24.6362 4.60922C24.6362 2.06362 26.5797 0 28.9771 0C31.3746 0 33.3181 2.06362 33.3181 4.60922V6.71024C33.7381 6.95519 34.0796 7.32881 34.2977 7.7832C34.4462 8.09272 34.5049 8.42133 34.5322 8.77576C34.5584 9.11644 34.5584 9.53416 34.5584 10.038V13.1021C34.5584 13.606 34.5584 14.0237 34.5322 14.3644C34.5049 14.7188 34.4462 15.0474 34.2977 15.3569C34.0683 15.8348 33.7024 16.2234 33.2523 16.4669C32.9608 16.6246 32.6513 16.6869 32.3175 16.7159C31.9967 16.7437 31.6033 16.7437 31.1288 16.7437H26.8255C26.351 16.7437 25.9576 16.7437 25.6367 16.7159C25.3029 16.6869 24.9934 16.6246 24.7019 16.4669C24.2519 16.2234 23.8859 15.8348 23.6566 15.3569C23.5081 15.0474 23.4494 14.7188 23.4221 14.3644C23.3959 14.0237 23.3959 13.606 23.3959 13.1021V10.038C23.3959 9.53417 23.3959 9.11644 23.4221 8.77576C23.4494 8.42133 23.5081 8.09272 23.6566 7.7832C23.8747 7.32881 24.2162 6.95519 24.6362 6.71024V4.60922ZM32.0778 4.60922V6.40885C31.8062 6.39645 31.4912 6.39646 31.1288 6.39646H26.8255C26.4631 6.39646 26.148 6.39645 25.8765 6.40885V4.60922C25.8765 2.79093 27.2647 1.31692 28.9771 1.31692C30.6896 1.31692 32.0778 2.79093 32.0778 4.60922Z" fill="#D3D3D3" style="fill:#D3D3D3;fill:color(display-p3 0.8276 0.8276 0.8276);fill-opacity:1;"/>
<path fill-rule="evenodd" clip-rule="evenodd" d="M23.6566 7.7832C23.8472 7.3861 24.132 7.0507 24.4811 6.80894C24.5315 6.77406 24.5832 6.74113 24.6362 6.71024V4.60922C24.6362 2.06362 26.5797 0 28.9771 0C31.3746 0 33.3181 2.06362 33.3181 4.60922V6.71024C33.371 6.74113 33.4228 6.77406 33.4731 6.80894C33.8222 7.0507 34.1071 7.3861 34.2977 7.7832C34.4462 8.09272 34.5049 8.42133 34.5322 8.77576C34.5584 9.11644 34.5584 9.53416 34.5584 10.038V13.1021C34.5584 13.606 34.5584 14.0237 34.5322 14.3644C34.5049 14.7188 34.4462 15.0474 34.2977 15.3569C34.0683 15.8348 33.7024 16.2234 33.2523 16.4669C32.9608 16.6246 32.6513 16.6869 32.3175 16.7159C31.9967 16.7437 31.6033 16.7437 31.1288 16.7437H26.8255C26.351 16.7437 25.9576 16.7437 25.6367 16.7159C25.3029 16.6869 24.9934 16.6246 24.7019 16.4669C24.2519 16.2234 23.8859 15.8348 23.6566 15.3569C23.5081 15.0474 23.4494 14.7188 23.4221 14.3644C23.3959 14.0237 23.3959 13.606 23.3959 13.1021V10.038C23.3959 9.53417 23.3959 9.11644 23.4221 8.77576C23.4494 8.42133 23.5081 8.09272 23.6566 7.7832ZM32.0142 7.8027L32.4563 7.82288L32.6151 7.9155C32.7858 8.01506 32.9381 8.17515 33.0397 8.38686C33.0818 8.47465 33.1199 8.60867 33.141 8.88281C33.1622 9.1581 33.1631 9.51485 33.1631 10.038V13.1022C33.1631 13.6253 33.1622 13.9821 33.141 14.2573C33.1199 14.5315 33.0818 14.6655 33.0397 14.7533C32.9328 14.976 32.7699 15.1414 32.5884 15.2396C32.5333 15.2694 32.4372 15.3049 32.197 15.3258C31.9497 15.3472 31.6251 15.3484 31.1289 15.3484H26.8255C26.3292 15.3484 26.0045 15.3472 25.7573 15.3258C25.5171 15.3049 25.4209 15.2694 25.3659 15.2396C25.1843 15.1414 25.0215 14.976 24.9146 14.7533C24.8725 14.6655 24.8344 14.5315 24.8133 14.2573C24.7921 13.982 24.7912 13.6253 24.7912 13.1021V10.038C24.7912 9.51484 24.7921 9.1581 24.8133 8.88281C24.8344 8.60866 24.8725 8.47465 24.9146 8.38686C25.0162 8.17514 25.1685 8.01506 25.3392 7.9155L25.498 7.82288L25.9401 7.8027C26.1732 7.79206 26.4533 7.79176 26.8255 7.79177H31.1288C31.5011 7.79176 31.7811 7.79206 32.0142 7.8027ZM26.1865 4.53887C26.1865 2.75654 27.4798 1.39531 28.9771 1.39531C30.4745 1.39531 31.7678 2.75654 31.7678 4.53887V6.0344C31.6024 6.03275 31.4277 6.03275 31.2451 6.03276H26.7093C26.5266 6.03275 26.3519 6.03275 26.1865 6.0344V4.53887Z" fill="#77736B" style="fill:#77736B;fill:color(display-p3 0.4668 0.4528 0.4212);fill-opacity:1;"/>
</svg>

<svg xmlns="http://www.w3.org/2000/svg" width="40" height="40" fill="none"><path fill="#F3D48F" d="M12.296 7.032a3.673 3.673 0 0 0-5.52-.375l-.79.789c-2.521 2.521-3.778 6.149-2.622 9.523a34.75 34.75 0 0 0 8.334 13.333 34.75 34.75 0 0 0 13.334 8.334c3.373 1.156 7-.101 9.522-2.623l.789-.788a3.673 3.673 0 0 0-.375-5.521l-5.164-3.925a3.67 3.67 0 0 0-4.82.327l-2.248 2.248c-.717.717-3.334-.736-5.844-3.246s-3.963-5.127-3.246-5.844l2.248-2.248a3.67 3.67 0 0 0 .327-4.82z" style="fill:#f3d48f;fill:color(display-p3 .9527 .8304 .5627);fill-opacity:1"/><path fill="#F8E3B5" fill-rule="evenodd" d="M16.242 16.62a3.63 3.63 0 0 0 .09-4.505l-3.877-5.101a3.63 3.63 0 0 0-5.22-.585c.19 5.161 4.025 9.391 9.007 10.19m8.44 9.54.306-.306a3.63 3.63 0 0 1 4.76-.323l5.101 3.877a3.63 3.63 0 0 1 1.157 4.281q-.526.053-1.065.053c-4.83 0-8.915-3.193-10.26-7.582" clip-rule="evenodd" style="fill:#f8e3b5;fill:color(display-p3 .973 .8908 .7105);fill-opacity:1"/><path fill="#A48338" fill-rule="evenodd" d="M11.556 7.595a2.743 2.743 0 0 0-4.123-.28l-.789.788c-2.334 2.335-3.414 5.604-2.4 8.564a33.8 33.8 0 0 0 8.112 12.977 33.8 33.8 0 0 0 12.977 8.112c2.96 1.014 6.229-.066 8.564-2.4l.788-.789a2.743 2.743 0 0 0-.28-4.123l-5.164-3.925a2.74 2.74 0 0 0-3.6.244l-2.247 2.249c-.514.513-1.215.497-1.698.404-.52-.101-1.09-.345-1.661-.662-1.153-.64-2.502-1.69-3.8-2.989s-2.349-2.647-2.99-3.8c-.316-.57-.56-1.14-.66-1.661-.094-.483-.11-1.184.403-1.697l2.249-2.249a2.74 2.74 0 0 0 .244-3.599zM6.117 5.999a4.603 4.603 0 0 1 6.92.47l3.925 5.164a4.6 4.6 0 0 1-.41 6.04l-2.158 2.159q.003.042.017.118c.048.25.19.625.461 1.112.535.962 1.466 2.176 2.678 3.388s2.426 2.143 3.388 2.678c.487.27.863.413 1.112.461q.076.015.118.017l2.158-2.158a4.6 4.6 0 0 1 6.04-.41l5.165 3.925a4.603 4.603 0 0 1 .47 6.92l-.789.788c-2.709 2.709-6.694 4.143-10.482 2.845a35.7 35.7 0 0 1-13.69-8.556 35.7 35.7 0 0 1-8.556-13.69C1.186 13.482 2.62 9.496 5.33 6.788zm16.114 21.607-.01.001zm-7.837-7.837-.001.01z" clip-rule="evenodd" style="fill:#a48338;fill:color(display-p3 .6444 .5137 .2203);fill-opacity:1"/><path fill="#D3D3D3" fill-rule="evenodd" d="M24.636 4.61c0-2.546 1.944-4.61 4.341-4.61s4.341 2.064 4.341 4.61v2.1c.42.245.762.619.98 1.073.148.31.207.638.234.993.026.34.026.758.026 1.262v3.064c0 .504 0 .922-.026 1.262-.027.355-.086.683-.234.993-.23.478-.596.866-1.046 1.11-.291.158-.6.22-.934.249-.321.028-.715.028-1.19.028h-4.302c-.475 0-.868 0-1.19-.028-.333-.03-.643-.091-.934-.25a2.47 2.47 0 0 1-1.045-1.11c-.149-.309-.208-.637-.235-.992-.026-.34-.026-.758-.026-1.262v-3.064c0-.504 0-.922.026-1.262.027-.355.086-.683.235-.993a2.5 2.5 0 0 1 .98-1.073zm7.442 0v1.799c-.272-.013-.587-.013-.95-.013h-4.302c-.363 0-.678 0-.95.013v-1.8c0-1.818 1.389-3.292 3.101-3.292 1.713 0 3.1 1.474 3.1 3.292" clip-rule="evenodd" style="fill:#d3d3d3;fill:color(display-p3 .8276 .8276 .8276);fill-opacity:1"/><path fill="#77736B" fill-rule="evenodd" d="M23.657 7.783a2.5 2.5 0 0 1 .98-1.073v-2.1c0-2.546 1.943-4.61 4.34-4.61 2.398 0 4.341 2.064 4.341 4.61v2.1q.08.047.155.099c.35.242.634.577.825.974.148.31.207.638.234.993.026.34.026.758.026 1.262v3.064c0 .504 0 .922-.026 1.262-.027.355-.086.683-.234.993-.23.478-.596.866-1.046 1.11-.291.158-.6.22-.934.249-.321.028-.715.028-1.19.028h-4.302c-.475 0-.868 0-1.19-.028-.333-.03-.643-.091-.934-.25a2.47 2.47 0 0 1-1.045-1.11c-.149-.309-.208-.637-.235-.992-.026-.34-.026-.758-.026-1.262v-3.064c0-.504 0-.922.026-1.262.027-.355.086-.683.235-.993m8.357.02.442.02.16.092c.17.1.322.26.424.472.042.088.08.222.101.496.021.275.022.632.022 1.155v3.064c0 .523 0 .88-.022 1.155-.021.274-.06.409-.101.496a1.1 1.1 0 0 1-.452.487c-.055.03-.15.065-.391.086-.247.021-.572.022-1.068.022h-4.303c-.497 0-.822 0-1.069-.022-.24-.021-.336-.057-.391-.086a1.1 1.1 0 0 1-.451-.487c-.043-.088-.08-.222-.102-.496a17 17 0 0 1-.022-1.155v-3.064c0-.523.001-.88.022-1.155.021-.274.06-.408.102-.496.101-.212.254-.372.424-.472l.159-.092.442-.02c.233-.01.513-.011.886-.011h4.303c.372 0 .652 0 .885.01m-5.828-3.264c0-1.782 1.294-3.144 2.791-3.144s2.79 1.362 2.79 3.144v1.495l-.522-.001H26.71l-.523.001z" clip-rule="evenodd" style="fill:#77736b;fill:color(display-p3 .4668 .4528 .4212);fill-opacity:1"/></svg>
